X:1
T:James Gibb editions
T:The radiant morn hath passed away - Barnby
%%score [ ( 1 2 ) ( 3 4 ) ]
L:1/8
Q:1/4=80
M:4/4
K:Eb
V:1 treble nm="Midi_74"
V:2 treble 
V:3 bass nm="Midi_74"
V:4 bass 
V:1
"^Godfrey Thring\n(1823-1903)""^88. 84""^The radiant morn hath passed away""^Joseph Barnby\n(1838-96)" G2 | %1
 G3 F F2 E2 | B2 A2 G2 || G2 | =A2 B2 d2 c2 | B2 =A2 G2 ||[M:4/4] B2 | c2 d2 e2 G2 | A2 B2 E2 || %9
 A2 | (G2 E2) F4 | E6 || E4 E4 |] %13
V:2
 E2 | C3 C C2 B,2 | C2 D2 E2 || G2 | G2 G2 G2 G2 | ^F2 F2 G2 ||[M:4/4] D2 | E2 F2 E2 _D2 | %8
 _D2 D2 C2 || F2 | (D2 E2) D4 | E6 || C4 B,4 |] %13
V:3
 B,2 | A,3 A, A,2 G,2 | F,2 B,2 B,2 || B,2 | E2 D2 E2 E2 | D2 C2 B,2 || %6
[M:4/4]"^1 The radiant morn hath passed away,\nAnd spent too soon her golden store;\nThe shadows of departing day\nCreep on once more.\n\n2 Our life is but an autumn sun,\nIts glorious noon how quickly past;\nLead us, O Christ, our life-work done,\nSafe home at last.\n\n3 O by thy soul-inspiring grace\nUplift our hearts to realms on high;\nHelp us to look to that bright place\nBeyond the sky, A-men.\n\n4 Where light, and life, and joy, and peace\nIn undivided empire reign,\nAnd thronging angels never cease\nTheir deathless strain;\n\n5 Where saints are clothed in spotless white,\nAnd evening shadows never fall,\nWhere thou, eternal Light of light,\nArt Lord of all." B,2 | %7
 _A,2 A,2 G,2 E,2 | F,2 E,2 E,2 || C2 | (=B,2 G,2) A,4 | G,6 || A,4 G,4 |] %13
V:4
 E,2 | E,3 E, E,2 E,2 | E,2 E,2 E,2 || E,2 | C,2 B,,2 =A,,2 A,,2 | D,2 D,2 G,2 ||[M:4/4] G,2 | %7
 F,2 B,,2 C,2 B,,2 | A,,2 G,,2 A,,2 || F,,2 | (G,,2 C,2) B,,4 | E,6 || A,,4 E,4 |] %13

